;FLAVOR:Marlin
;TIME:15478
;Filament used: 13.6874m
;Layer height: 0.3
;Generated with Cura_SteamEngine 3.1.0
M190 S60
M104 S200
M109 S200
M82 ; absolute extrusion mode
G21       ;metric values
G90       ;absolute positioning
M82       ;set extruder to absolute mode
M107      ;start with the fan off
G28       ;home
G1 Z15.0 F840
G92 E0    ;zero the extruded length
G1 F200 E3              ;extrude 3mm of feed stock
G92 E0                  ;zero the extruded length again
G1 F840
M117 Printing...
;LAYER_COUNT:84
;LAYER:0
M107
G0 F1470 X107.395 Y44.73 Z0.3
;TYPE:SKIRT
G1 X107.622 Y44.244 E0.02676
G1 X107.919 Y43.797 E0.05354
G1 X108.279 Y43.4 E0.08027
G1 X108.695 Y43.06 E0.10708
G1 X109.155 Y42.786 E0.13379
G1 X109.652 Y42.584 E0.16055
G1 X110.173 Y42.457 E0.18731
G1 X110.761 Y42.409 E0.21674
G1 X113.747 Y42.41 E0.36571
G1 X114.282 Y42.45 E0.39248
G1 X114.805 Y42.569 E0.41924
G1 X115.304 Y42.765 E0.44599
G1 X115.576 Y42.91 E0.46136
G1 X117.477 Y44.032 E0.57149
G1 X122.31 Y46.642 E0.84553
G1 X127.238 Y48.95 E1.11701
G1 X132.362 Y51.009 E1.39252
G1 X134.865 Y51.889 E1.52489
G1 X140.109 Y53.494 E1.79849
G1 X145.446 Y54.867 E2.07342
G1 X145.954 Y55.038 E2.10016
G1 X146.253 Y55.182 E2.11672
G1 X147.388 Y55.792 E2.18101
G1 X148.026 Y56.229 E2.21959
G1 X148.62 Y56.738 E2.25861
G1 X149.017 Y57.136 E2.28666
G1 X149.528 Y57.735 E2.32594
G1 X149.856 Y58.187 E2.3538
G1 X150.259 Y58.843 E2.39221
G1 X150.517 Y59.348 E2.42051
G1 X150.821 Y60.081 E2.4601
G1 X150.996 Y60.617 E2.48823
G1 X151.178 Y61.373 E2.52702
G1 X151.273 Y62.025 E2.55989
G1 X151.345 Y63.377 E2.62744
G1 X151.35 Y63.571 E2.63712
G1 X151.303 Y117.601 E5.33269
G1 X151.278 Y118.018 E5.35353
G1 X151.129 Y119.287 E5.41728
G1 X151.026 Y119.817 E5.44421
G1 X150.613 Y121.327 E5.52231
G1 X150.377 Y121.955 E5.55579
G1 X149.38 Y123.999 E5.66925
G1 X149.317 Y124.121 E5.6761
G1 X146.693 Y129.017 E5.95323
G1 X144.392 Y133.965 E6.22547
G1 X142.365 Y139.053 E6.49871
G1 X141.485 Y141.579 E6.63217
G1 X139.897 Y146.825 E6.90562
G1 X138.614 Y152.126 E7.17772
G1 X137.638 Y157.466 E7.44855
G1 X136.817 Y164.406 E7.7972
G1 X136.715 Y164.932 E7.82393
G1 X136.535 Y165.438 E7.85073
G1 X136.282 Y165.911 E7.87749
G1 X135.962 Y166.341 E7.90423
G1 X135.582 Y166.719 E7.93097
G1 X135.149 Y167.036 E7.95774
G1 X134.675 Y167.286 E7.98448
G1 X134.168 Y167.462 E8.01125
G1 X133.641 Y167.561 E8.03801
G1 X133.242 Y167.583 E8.05794
G1 X62.259 Y167.59 E11.5993
G1 X61.725 Y167.55 E11.62601
G1 X61.202 Y167.431 E11.65277
G1 X60.702 Y167.236 E11.67955
G1 X60.237 Y166.969 E11.7063
G1 X59.817 Y166.635 E11.73307
G1 X59.451 Y166.243 E11.75983
G1 X59.148 Y165.801 E11.78656
G1 X58.913 Y165.319 E11.81332
G1 X58.753 Y164.807 E11.84008
G1 X58.67 Y164.277 E11.86684
G1 X58.659 Y163.989 E11.88122
G1 X58.66 Y161.002 E12.03024
G1 X58.7 Y160.467 E12.05701
G1 X58.819 Y159.944 E12.08377
G1 X59.051 Y159.37 E12.11466
G1 X61.953 Y153.667 E12.4339
G1 X64.12 Y148.687 E12.70485
G1 X66.019 Y143.548 E12.97819
G1 X67.612 Y138.345 E13.24966
G1 X68.927 Y132.996 E13.52447
G1 X69.448 Y130.39 E13.65705
G1 X70.298 Y124.976 E13.93047
G1 X70.744 Y120.831 E14.13846
G1 X70.822 Y120.378 E14.16139
G1 X71.001 Y119.63 E14.19976
G1 X71.215 Y119.001 E14.23291
G1 X71.635 Y118.06 E14.28432
G1 X71.889 Y117.588 E14.31106
G1 X72.053 Y117.352 E14.3254
G1 X72.853 Y116.297 E14.39145
G1 X73.295 Y115.813 E14.42415
G1 X77.966 Y111.549 E14.73969
G1 X81.768 Y107.645 E15.01156
G1 X85.342 Y103.532 E15.28341
G1 X88.688 Y99.209 E15.55614
G1 X91.766 Y94.734 E15.82711
G1 X94.602 Y90.062 E16.09978
G1 X97.166 Y85.244 E16.37207
G1 X99.451 Y80.298 E16.64389
G1 X101.466 Y75.198 E16.91746
G1 X103.16 Y70.07 E17.1869
G1 X104.595 Y64.742 E17.46219
G1 X105.173 Y62.157 E17.59434
G1 X106.142 Y56.771 E17.86736
G1 X106.806 Y51.333 E18.14068
G1 X107.168 Y45.775 E18.41856
G1 X107.242 Y45.244 E18.4453
G1 X107.395 Y44.73 E18.47206
G0 X107.79 Y44.818
G1 X108.015 Y44.365 E18.49729
G1 X108.308 Y43.953 E18.52252
G1 X108.662 Y43.593 E18.54771
G1 X109.069 Y43.292 E18.57296
G1 X109.518 Y43.06 E18.59817
G1 X109.998 Y42.901 E18.6234
G1 X110.497 Y42.82 E18.64862
G1 X110.761 Y42.809 E18.66181
G1 X113.747 Y42.81 E18.81078
G1 X114.251 Y42.85 E18.836
G1 X114.742 Y42.969 E18.86121
G1 X115.373 Y43.254 E18.89575
G1 X117.294 Y44.388 E19.00704
G1 X122.122 Y46.995 E19.28078
G1 X127.098 Y49.326 E19.55493
G1 X132.201 Y51.376 E19.82929
G1 X134.735 Y52.267 E19.9633
G1 X140.005 Y53.88 E20.23826
G1 X145.346 Y55.254 E20.5134
G1 X145.825 Y55.418 E20.53866
G1 X146.064 Y55.534 E20.55191
G1 X147.199 Y56.144 E20.6162
G1 X147.766 Y56.533 E20.6505
G1 X148.36 Y57.042 E20.68953
G1 X148.712 Y57.395 E20.7144
G1 X149.223 Y57.994 E20.75368
G1 X149.516 Y58.396 E20.7785
G1 X149.919 Y59.052 E20.81691
G1 X150.148 Y59.501 E20.84206
G1 X150.452 Y60.234 E20.88165
G1 X150.607 Y60.711 E20.90667
G1 X150.789 Y61.467 E20.94546
G1 X150.873 Y62.046 E20.97465
G1 X150.945 Y63.398 E21.0422
G1 X150.95 Y63.571 E21.05083
G1 X150.903 Y117.601 E23.7464
G1 X150.881 Y117.971 E23.7649
G1 X150.732 Y119.24 E23.82864
G1 X150.641 Y119.711 E23.85257
G1 X150.228 Y121.221 E23.93067
G1 X150.017 Y121.78 E23.96048
G1 X149.02 Y123.824 E24.07394
G1 X148.965 Y123.933 E24.08004
G1 X146.332 Y128.846 E24.35813
G1 X144.026 Y133.806 E24.63102
G1 X141.983 Y138.934 E24.90641
G1 X141.106 Y141.451 E25.03939
G1 X139.51 Y146.72 E25.31406
G1 X138.225 Y152.032 E25.58672
G1 X137.242 Y157.41 E25.85947
G1 X136.42 Y164.359 E26.20858
G1 X136.321 Y164.855 E26.23381
G1 X136.145 Y165.329 E26.25903
G1 X135.897 Y165.769 E26.28423
G1 X135.583 Y166.165 E26.30945
G1 X135.21 Y166.507 E26.33469
G1 X134.788 Y166.785 E26.35991
G1 X134.327 Y166.993 E26.38514
G1 X133.839 Y167.127 E26.41038
G1 X133.242 Y167.183 E26.4403
G1 X62.259 Y167.19 E29.98166
G1 X61.755 Y167.15 E30.00688
G1 X61.264 Y167.031 E30.03209
G1 X60.797 Y166.837 E30.05731
G1 X60.367 Y166.571 E30.08254
G1 X59.984 Y166.241 E30.10776
G1 X59.658 Y165.854 E30.13301
G1 X59.397 Y165.422 E30.15819
G1 X59.207 Y164.953 E30.18343
G1 X59.094 Y164.46 E30.20867
G1 X59.059 Y163.989 E30.23223
G1 X59.06 Y161.002 E30.38125
G1 X59.1 Y160.498 E30.40648
G1 X59.219 Y160.007 E30.43168
G1 X59.408 Y159.552 E30.45626
G1 X62.313 Y153.843 E30.77584
G1 X64.489 Y148.844 E31.04784
G1 X66.396 Y143.682 E31.32239
G1 X67.997 Y138.452 E31.59527
G1 X69.318 Y133.078 E31.87136
G1 X69.842 Y130.457 E32.00471
G1 X70.693 Y125.039 E32.27833
G1 X71.141 Y120.874 E32.48732
G1 X71.211 Y120.471 E32.50772
G1 X71.39 Y119.723 E32.5461
G1 X71.58 Y119.164 E32.57555
G1 X72 Y118.223 E32.62696
G1 X72.372 Y117.593 E32.66346
G1 X73.172 Y116.538 E32.72952
G1 X73.565 Y116.109 E32.75854
G1 X78.231 Y111.849 E33.07376
G1 X82.065 Y107.913 E33.34789
G1 X85.66 Y103.774 E33.6214
G1 X89.002 Y99.458 E33.89374
G1 X92.108 Y94.943 E34.16714
G1 X94.946 Y90.265 E34.44012
G1 X97.525 Y85.421 E34.71391
G1 X99.819 Y80.456 E34.98677
G1 X101.842 Y75.334 E35.26152
G1 X103.542 Y70.189 E35.53185
G1 X104.982 Y64.841 E35.80817
G1 X105.569 Y62.218 E35.94227
G1 X106.54 Y56.821 E36.21585
G1 X107.203 Y51.389 E36.48886
G1 X107.567 Y45.801 E36.76824
G1 X107.639 Y45.3 E36.79349
G1 X107.79 Y44.818 E36.81869
G1 F600 E33.81869
G0 F1470 X110.085 Y46.614
G0 X111.364 Y46.614
G0 X111.42 Y117.67
G0 X111.35 Y117.6
;TYPE:WALL-INNER
G1 F600 E36.81869
G1 F1470 X111.35 Y46.6 E40.3609
G1 X113.15 Y46.6 E40.4507
G1 X113.15 Y48.024 E40.52174
G1 X113.279 Y49.658 E40.60352
G1 X113.666 Y51.276 E40.68652
G1 X114.304 Y52.813 E40.76954
G1 X115.173 Y54.232 E40.85256
G1 X116.253 Y55.497 E40.93554
G1 X117.518 Y56.577 E41.01852
G1 X118.937 Y57.446 E41.10154
G1 X120.474 Y58.084 E41.18456
G1 X122.092 Y58.471 E41.26756
G1 X123.726 Y58.6 E41.34934
G1 X142.728 Y58.6 E42.29735
G1 X143.44 Y58.657 E42.33298
G1 X144.105 Y58.816 E42.3671
G1 X144.745 Y59.081 E42.40165
G1 X145.338 Y59.444 E42.43634
G1 X145.86 Y59.89 E42.4706
G1 X146.306 Y60.412 E42.50485
G1 X146.669 Y61.005 E42.53954
G1 X146.934 Y61.645 E42.5741
G1 X147.093 Y62.31 E42.60821
G1 X147.15 Y63.019 E42.6437
G1 X147.15 Y116.982 E45.33592
G1 X147.032 Y118.472 E45.41049
G1 X146.691 Y119.896 E45.48354
G1 X146.123 Y121.267 E45.55758
G1 X145.351 Y122.527 E45.6313
G1 X144.395 Y123.645 E45.70469
G1 X143.277 Y124.601 E45.77808
G1 X142.015 Y125.374 E45.85191
G1 X140.634 Y125.944 E45.92645
G1 X139.216 Y126.283 E45.99919
G1 X137.729 Y126.4 E46.0736
G1 X131.226 Y126.4 E46.39804
G1 X129.592 Y126.529 E46.47981
G1 X127.974 Y126.916 E46.56281
G1 X126.437 Y127.554 E46.64584
G1 X125.018 Y128.423 E46.72885
G1 X123.753 Y129.503 E46.81184
G1 X122.673 Y130.768 E46.89482
G1 X121.804 Y132.187 E46.97783
G1 X121.166 Y133.724 E47.06086
G1 X120.779 Y135.342 E47.14386
G1 X120.65 Y136.976 E47.22563
G1 X120.65 Y151.024 E47.92649
G1 X120.779 Y152.658 E48.00826
G1 X121.166 Y154.276 E48.09126
G1 X121.804 Y155.813 E48.17429
G1 X122.673 Y157.232 E48.2573
G1 X123.753 Y158.497 E48.34029
G1 X125.018 Y159.577 E48.42327
G1 X126.437 Y160.446 E48.50628
G1 X127.974 Y161.084 E48.58931
G1 X129.592 Y161.471 E48.67231
G1 X131.226 Y161.6 E48.75408
G1 X132.65 Y161.6 E48.82513
G1 X132.65 Y163.4 E48.91493
G1 X62.85 Y163.4 E52.39726
G1 X62.85 Y161.6 E52.48707
G1 X64.274 Y161.6 E52.55811
G1 X65.908 Y161.471 E52.63989
G1 X67.526 Y161.084 E52.72288
G1 X69.063 Y160.446 E52.80591
G1 X70.482 Y159.577 E52.88892
G1 X71.747 Y158.497 E52.97191
G1 X72.827 Y157.232 E53.05489
G1 X73.696 Y155.813 E53.13791
G1 X74.334 Y154.276 E53.22093
G1 X74.721 Y152.658 E53.30393
G1 X74.85 Y151.024 E53.3857
G1 X74.85 Y122.019 E54.83277
G1 X74.907 Y121.31 E54.86826
G1 X75.066 Y120.645 E54.90237
G1 X75.331 Y120.005 E54.93693
G1 X75.694 Y119.412 E54.97161
G1 X76.14 Y118.89 E55.00587
G1 X76.662 Y118.444 E55.04012
G1 X77.255 Y118.081 E55.07481
G1 X77.895 Y117.816 E55.10937
G1 X78.56 Y117.657 E55.14348
G1 X79.272 Y117.6 E55.17912
G1 X111.35 Y117.6 E56.77949
G0 X110.95 Y117.2
;TYPE:WALL-OUTER
G1 X110.95 Y46.2 E60.3217
G1 X113.55 Y46.2 E60.45141
G1 X113.55 Y48.008 E60.54161
G1 X113.675 Y49.595 E60.62104
G1 X114.048 Y51.152 E60.70091
G1 X114.661 Y52.631 E60.78079
G1 X115.498 Y53.996 E60.86067
G1 X116.537 Y55.213 E60.9405
G1 X117.754 Y56.252 E61.02034
G1 X119.119 Y57.089 E61.10022
G1 X120.598 Y57.702 E61.1801
G1 X122.155 Y58.075 E61.25997
G1 X123.742 Y58.2 E61.33939
G1 X142.747 Y58.2 E62.28756
G1 X143.501 Y58.26 E62.32529
G1 X144.231 Y58.435 E62.36274
G1 X144.925 Y58.722 E62.40021
G1 X145.574 Y59.12 E62.43819
G1 X146.144 Y59.606 E62.47557
G1 X146.63 Y60.176 E62.51294
G1 X147.028 Y60.825 E62.55092
G1 X147.315 Y61.519 E62.58839
G1 X147.49 Y62.249 E62.62584
G1 X147.55 Y63 E62.66342
G1 X147.55 Y117 E65.3575
G1 X147.429 Y118.533 E65.43422
G1 X147.072 Y120.023 E65.51066
G1 X146.482 Y121.447 E65.58756
G1 X145.675 Y122.763 E65.66457
G1 X144.679 Y123.929 E65.74108
G1 X143.513 Y124.925 E65.81758
G1 X142.195 Y125.733 E65.89471
G1 X140.76 Y126.325 E65.97216
G1 X139.277 Y126.68 E66.04824
G1 X137.747 Y126.8 E66.1248
G1 X131.242 Y126.8 E66.44934
G1 X129.655 Y126.925 E66.52876
G1 X128.098 Y127.298 E66.60864
G1 X126.619 Y127.911 E66.68851
G1 X125.254 Y128.748 E66.76839
G1 X124.037 Y129.787 E66.84823
G1 X122.998 Y131.004 E66.92806
G1 X122.161 Y132.369 E67.00794
G1 X121.548 Y133.848 E67.08782
G1 X121.175 Y135.405 E67.1677
G1 X121.05 Y136.992 E67.24712
G1 X121.05 Y151.008 E67.94638
G1 X121.175 Y152.595 E68.0258
G1 X121.548 Y154.152 E68.10568
G1 X122.161 Y155.631 E68.18555
G1 X122.998 Y156.996 E68.26543
G1 X124.037 Y158.213 E68.34527
G1 X125.254 Y159.252 E68.4251
G1 X126.619 Y160.089 E68.50498
G1 X128.098 Y160.702 E68.58486
G1 X129.655 Y161.075 E68.66474
G1 X131.242 Y161.2 E68.74416
G1 X133.05 Y161.2 E68.83436
G1 X133.05 Y163.8 E68.96407
G1 X62.45 Y163.8 E72.48632
G1 X62.45 Y161.2 E72.61604
G1 X64.258 Y161.2 E72.70624
G1 X65.845 Y161.075 E72.78566
G1 X67.402 Y160.702 E72.86554
G1 X68.881 Y160.089 E72.94541
G1 X70.246 Y159.252 E73.02529
G1 X71.463 Y158.213 E73.10513
G1 X72.502 Y156.996 E73.18496
G1 X73.339 Y155.631 E73.26484
G1 X73.952 Y154.152 E73.34472
G1 X74.325 Y152.595 E73.4246
G1 X74.45 Y151.008 E73.50402
G1 X74.45 Y122 E74.95123
G1 X74.51 Y121.249 E74.98882
G1 X74.685 Y120.519 E75.02627
G1 X74.972 Y119.825 E75.06374
G1 X75.37 Y119.176 E75.10172
G1 X75.856 Y118.606 E75.13909
G1 X76.426 Y118.12 E75.17646
G1 X77.075 Y117.722 E75.21444
G1 X77.769 Y117.435 E75.25191
G1 X78.499 Y117.26 E75.28936
G1 X79.253 Y117.2 E75.3271
G1 X110.95 Y117.2 E76.90847
G0 X110.95 Y117
G0 X111.45 Y117
G0 X111.74 Y117.99
;TYPE:SKIN
G1 X111.74 Y46.99 E80.45067
G1 X112.76 Y46.99 E80.50156
G1 X112.76 Y48.039 E80.5539
G1 X112.893 Y49.719 E80.63797
G1 X113.294 Y51.397 E80.72405
G1 X113.955 Y52.991 E80.81014
G1 X114.857 Y54.462 E80.89623
G1 X115.976 Y55.774 E80.98226
G1 X117.288 Y56.893 E81.06829
G1 X118.759 Y57.795 E81.15437
G1 X120.353 Y58.456 E81.24046
G1 X122.031 Y58.857 E81.32654
G1 X123.711 Y58.99 E81.41062
G1 X142.722 Y58.99 E82.35908
G1 X143.37 Y59.042 E82.39151
G1 X143.983 Y59.189 E82.42296
G1 X144.572 Y59.433 E82.45477
G1 X145.112 Y59.763 E82.48634
G1 X145.584 Y60.166 E82.5173
G1 X145.987 Y60.638 E82.54827
G1 X146.317 Y61.178 E82.57984
G1 X146.561 Y61.767 E82.61165
G1 X146.708 Y62.381 E82.64315
G1 X146.76 Y63.019 E82.67508
G1 X146.76 Y116.982 E85.36731
G1 X146.647 Y118.402 E85.43837
G1 X146.318 Y119.774 E85.50876
G1 X145.771 Y121.094 E85.58005
G1 X145.035 Y122.297 E85.65041
G1 X144.118 Y123.368 E85.72075
G1 X143.047 Y124.285 E85.79109
G1 X141.838 Y125.025 E85.86181
G1 X140.517 Y125.571 E85.93313
G1 X139.146 Y125.898 E86.00344
G1 X137.724 Y126.01 E86.07461
G1 X131.211 Y126.01 E86.39954
G1 X129.531 Y126.143 E86.48362
G1 X127.853 Y126.544 E86.56969
G1 X126.259 Y127.205 E86.65578
G1 X124.788 Y128.107 E86.74187
G1 X123.476 Y129.226 E86.8279
G1 X122.357 Y130.538 E86.91393
G1 X121.455 Y132.009 E87.00002
G1 X120.794 Y133.603 E87.08611
G1 X120.393 Y135.281 E87.17218
G1 X120.26 Y136.961 E87.25626
G1 X120.26 Y151.039 E87.95861
G1 X120.393 Y152.719 E88.04269
G1 X120.794 Y154.397 E88.12877
G1 X121.455 Y155.991 E88.21486
G1 X122.357 Y157.462 E88.30094
G1 X123.476 Y158.774 E88.38697
G1 X124.788 Y159.893 E88.473
G1 X126.259 Y160.795 E88.55909
G1 X127.853 Y161.456 E88.64518
G1 X129.531 Y161.857 E88.73125
G1 X131.211 Y161.99 E88.81533
G1 X132.26 Y161.99 E88.86767
G1 X132.26 Y163.01 E88.91856
G1 X63.24 Y163.01 E92.36198
G1 X63.24 Y161.99 E92.41287
G1 X64.289 Y161.99 E92.4652
G1 X65.969 Y161.857 E92.54928
G1 X67.647 Y161.456 E92.63535
G1 X69.241 Y160.795 E92.72144
G1 X70.712 Y159.893 E92.80753
G1 X72.024 Y158.774 E92.89356
G1 X73.143 Y157.462 E92.97959
G1 X74.045 Y155.991 E93.06568
G1 X74.706 Y154.397 E93.15177
G1 X75.107 Y152.719 E93.23784
G1 X75.24 Y151.039 E93.32192
G1 X75.24 Y122.019 E94.76973
G1 X75.292 Y121.381 E94.80167
G1 X75.439 Y120.767 E94.83317
G1 X75.683 Y120.178 E94.86497
G1 X76.013 Y119.638 E94.89655
G1 X76.416 Y119.166 E94.92751
G1 X76.888 Y118.763 E94.95847
G1 X77.428 Y118.433 E94.99005
G1 X78.017 Y118.189 E95.02185
G1 X78.63 Y118.042 E95.0533
G1 X79.278 Y117.99 E95.08574
G1 X111.74 Y117.99 E96.70527
G0 X71.775 Y158.525
G0 X70.505 Y159.609
G0 X69.224 Y160.393
G0 X63.834 Y162.829
G1 X63.419 Y162.414 E96.73455
G0 X63.74 Y162.169
G1 X64.399 Y162.829 E96.78108
G1 X64.469 Y162.899
G0 X64.965 Y162.829
G1 X64.304 Y162.168 E96.82772
G1 X64.234 Y162.098
G0 X64.829 Y162.127
G1 X65.531 Y162.829 E96.87725
G1 X65.601 Y162.899
G0 X66.096 Y162.829
G1 X65.353 Y162.085 E96.92971
G1 X65.283 Y162.015
G0 X65.877 Y162.044
G1 X66.662 Y162.829 E96.98509
G1 X66.732 Y162.899
G0 X67.228 Y162.829
G1 X66.349 Y161.95 E97.04711
G1 X66.279 Y161.88
G0 X66.806 Y161.841
G1 X67.793 Y162.829 E97.11679
G1 X67.863 Y162.899
G0 X68.359 Y162.829
G1 X67.263 Y161.732 E97.19415
G1 X67.193 Y161.662
G0 X67.718 Y161.621
G1 X68.925 Y162.829 E97.27935
G1 X68.995 Y162.899
G0 X69.49 Y162.829
G1 X68.117 Y161.455 E97.37625
G1 X68.047 Y161.385
G0 X68.517 Y161.29
G1 X70.056 Y162.829 E97.48484
G1 X70.126 Y162.899
G0 X70.622 Y162.829
G1 X68.917 Y161.124 E97.60514
G1 X68.847 Y161.054
G0 X69.317 Y160.958
G1 X71.187 Y162.829 E97.73711
G1 X71.257 Y162.899
G0 X71.753 Y162.829
G1 X69.669 Y160.744 E97.88418
G1 X69.599 Y160.674
G0 X70.019 Y160.528
G1 X72.319 Y162.829 E98.04649
G1 X72.389 Y162.899
G0 X72.885 Y162.829
G1 X70.369 Y160.313 E98.22401
G1 X70.299 Y160.243
